icons/Suru/scalable/categories/emoji-symbols-symbolic.svg

<?xml version="1.0" encoding="UTF-8"?>
<svg id="svg10" width="16" height="16" version="1.1" xmlns="http://www.w3.org/2000/svg" xmlns:cc="http://creativecommons.org/ns#" xmlns:dc="http://purl.org/dc/elements/1.1/" xmlns:rdf="http://www.w3.org/1999/02/22-rdf-syntax-ns#">
 <metadata id="metadata16">
  <rdf:RDF>
   <cc:Work rdf:about="">
    <dc:format>image/svg+xml</dc:format>
    <dc:type rdf:resource="http://purl.org/dc/dcmitype/StillImage"/>
    <dc:title/>
   </cc:Work>
  </rdf:RDF>
 </metadata>
 <path id="path867" d="m4.4766 1a0.50005 0.50005 0 0 0-0.33008 0.14648l-3 3a0.50005 0.50005 0 0 0 0 0.70703l3 3a0.50005 0.50005 0 0 0 0.70703 0l3-3a0.50005 0.50005 0 0 0 0-0.70703l-3-3a0.50005 0.50005 0 0 0-0.37695-0.14648zm0.023438 1.207 2.293 2.293-2.293 2.293-2.293-2.293 2.293-2.293z" color="#000000" color-rendering="auto" dominant-baseline="auto" fill="#808080" image-rendering="auto" shape-rendering="auto" solid-color="#000000" stop-color="#000000" style="font-feature-settings:normal;font-variant-alternates:normal;font-variant-caps:normal;font-variant-east-asian:normal;font-variant-ligatures:normal;font-variant-numeric:normal;font-variant-position:normal;font-variation-settings:normal;inline-size:0;isolation:auto;mix-blend-mode:normal;shape-margin:0;shape-padding:0;text-decoration-color:#000000;text-decoration-line:none;text-decoration-style:solid;text-indent:0;text-orientation:mixed;text-transform:none;white-space:normal"/>
 <path id="path871" d="m12.018 2a0.50005 0.50005 0 0 0-0.46484 0.27734l-2.5 5a0.50005 0.50005 0 0 0 0.44727 0.72266h5a0.50005 0.50005 0 0 0 0.44727-0.72266l-2.5-5a0.50005 0.50005 0 0 0-0.42969-0.27734zm-0.017578 1.6172 1.6914 3.3828h-3.3828l1.6914-3.3828z" color="#000000" color-rendering="auto" dominant-baseline="auto" fill="#808080" image-rendering="auto" shape-rendering="auto" solid-color="#000000" stop-color="#000000" style="font-feature-settings:normal;font-variant-alternates:normal;font-variant-caps:normal;font-variant-east-asian:normal;font-variant-ligatures:normal;font-variant-numeric:normal;font-variant-position:normal;font-variation-settings:normal;inline-size:0;isolation:auto;mix-blend-mode:normal;shape-margin:0;shape-padding:0;text-decoration-color:#000000;text-decoration-line:none;text-decoration-style:solid;text-indent:0;text-orientation:mixed;text-transform:none;white-space:normal"/>
 <path id="path858" d="m6.9492 9a3 3 0 0 0-2.9492 3 3 3 0 0 0 3 3 3 3 0 0 0 3-3 3 3 0 0 0-3-3 3 3 0 0 0-0.050781 0zm0.0019531 1a2 2 0 0 1 0.048828 0 2 2 0 0 1 2 2 2 2 0 0 1-2 2 2 2 0 0 1-2-2 2 2 0 0 1 1.9512-2z" fill="#808080" fill-rule="evenodd"/>
</svg>

<svg xmlns="http://www.w3.org/2000/svg" height="16" width="16">
    <path style="line-height:normal;font-variant-ligatures:normal;font-variant-position:normal;font-variant-caps:normal;font-variant-numeric:normal;font-variant-alternates:normal;font-variant-east-asian:normal;font-feature-settings:normal;font-variation-settings:normal;text-indent:0;text-align:start;text-decoration-line:none;text-decoration-style:solid;text-decoration-color:#000;text-transform:none;text-orientation:mixed;white-space:normal;shape-padding:0;shape-margin:0;inline-size:0;isolation:auto;mix-blend-mode:normal;solid-color:#000;solid-opacity:1" d="M4.477 1a.5.5 0 00-.33.146l-3 3a.5.5 0 000 .708l3 3a.5.5 0 00.707 0l3-3a.5.5 0 000-.708l-3-3A.5.5 0 004.477 1zM4.5 2.207L6.793 4.5 4.5 6.793 2.207 4.5 4.5 2.207zM12.018 2a.5.5 0 00-.465.277l-2.5 5A.5.5 0 009.5 8h5a.5.5 0 00.447-.723l-2.5-5a.5.5 0 00-.43-.277zM12 3.617L13.691 7H10.31L12 3.617z" color="#000" font-weight="400" font-family="sans-serif" overflow="visible" fill="gray"/>
    <path d="M6.95 9A3 3 0 004 12a3 3 0 003 3 3 3 0 003-3 3 3 0 00-3-3 3 3 0 00-.05 0zm.001 1A2 2 0 017 10a2 2 0 012 2 2 2 0 01-2 2 2 2 0 01-2-2 2 2 0 011.951-2z" fill="gray" fill-rule="evenodd"/>
</svg>
